azure-patterns/svg-iot-central-alt.svg

<svg xmlns="http://www.w3.org/2000/svg" viewBox="0 0 60 69">
                                
                            
  <path d="M 12.8571 31.2162L 25.7143 23.7414L 25.7143 7.47912L 12.85 0L 0 7.43939L 0 23.6903L 12.8571 31.2162Z" transform="translate(17.1428 18.4459)"></path>
  <path d="M 30 0L 0 16.9575L 0 28.4848L 14.2857 36.5925L 14.2857 30.0555L 5.71429 25.1901L 5.71429 20.2579L 29.9943 6.5327L 54.2857 20.3203L 54.2857 47.7878L 30 61.5712L 0 44.5441L 0 51.0811L 30 68.1081L 60 51.0811L 60 17.027L 30 0Z"></path>
</svg>

<svg xmlns="http://www.w3.org/2000/svg" viewBox="0 0 60 69"><path d="M30 49.662l12.857-7.475V25.925l-12.864-7.48-12.85 7.44v16.251L30 49.662z"/><path d="M30 0L0 16.957v11.528l14.286 8.108v-6.538L5.714 25.19v-4.932l24.28-13.725L54.286 20.32v27.468L30 61.57 0 44.544v6.537l30 17.027 30-17.027V17.027L30 0z"/></svg>
